X:1
T:Pretty Maid Milking Her Goat
M:3/4
L:1/4
K:F
D/2-E/2| F- A F| E G E| D C2| z2D/2-E/2| F A3/2 F/2| E G3/2 E/2| D2 z|\
 z2D/2-E/2| F- A F|E/2-G/2 G E| D C2| A2 G| F E D| A, D3/2 ^C/2| D2 z|\
 z2D/2-E/2| F GA/2-G/2| A d3/2 e/2| d c2| z2D/2-E/2| F GA/2-G/2| A d3/2 e/2|\
 d2 z| d2- c| A G E| D c3/2 E/2| D C2| z2 D/2D/2| F E- D| A, D3/2 C/2|\
 D2||
